.local/share/icons/Gruvbox-Plus-Dark/actions/16/format-text-direction-ltr.svg

<svg xmlns="http://www.w3.org/2000/svg" width="16" height="16" viewBox="0 0 16 16">
 <defs>
  <style id="current-color-scheme" type="text/css">
   .ColorScheme-Text { color:#ebdbb2; } .ColorScheme-Highlight { color:#458588; }
  </style>
 </defs>
 <path style="fill:currentColor" class="ColorScheme-Text" d="M 2 0 L 2 2 L 8 2 C 8.42816 2 9 2.61414 9 3 L 9 4 L 4 4 C 3.08073 4 2.2644 4.38396 1.75 4.96875 C 1.2356 5.55354 0.99361 6.2794 1 7 C 1.006 7.72062 1.26893 8.45275 1.78125 9.03125 C 2.29357 9.60979 3.0917 10 4 10 L 11 10 L 11 3 C 11.00009 1.3657 9.6802 0 8 0 L 2 0 z M 4 6 L 9 6 L 9 8 L 4 8 C 3.60213 8 3.43309 7.89021 3.28125 7.71875 C 3.12941 7.54729 3.00248 7.27938 3 7 C 2.998 6.72062 3.10467 6.44646 3.25 6.28125 C 3.39533 6.11604 3.57764 6 4 6 z M 12 8.9980469 C 12 8.9980469 12.00002 10.109147 12 10.998047 L 0.9375 10.998047 L 0.9375 12.998047 L 12 12.998047 C 12 13.886937 11.99995 14.998047 12 14.998047 L 16 11.998047 L 12 8.9980469 z"/>
</svg>

<svg width="16" height="16" version="1.1" xmlns="http://www.w3.org/2000/svg">
  <defs>
    <style id="current-color-scheme" type="text/css">.ColorScheme-Text { color:#ebdbb2; } .ColorScheme-Highlight { color:#458588; }</style>
  </defs>
  <path class="ColorScheme-Text" d="m2 0v2h6s1 1e-6 1 1v1h-5c-3 0-3 3-3 3s3e-6 3 3 3h7v-7c0-3-3-3-3-3h-6zm2 6h5v2h-5c-1 0-1-1-1-1s1e-6 -1 1-1zm8 3v2h-11v2h11v2l4-3-4-3z" fill="currentColor"/>
</svg>
